Yaru++/actions/16/dialog-align-and-distribute.svg

<svg viewBox="0 0 16 16" xmlns="http://www.w3.org/2000/svg"><path d="m2 2v12h1v-12zm2 0v5h10v-5zm1 1h8v3-3zm-1 6v5h5v-5zm4 4v-3 3h-3z" fill="#808080"/></svg>

<svg xmlns="http://www.w3.org/2000/svg" version="1.1" viewBox="0 0 16 16">
 <defs>
  <style id="current-color-scheme" type="text/css">
   .ColorScheme-Text { color:#808080; }
  </style>
 </defs>
 <path fill="#808080" class="ColorScheme-Text" d="M 2,2 V 14 H 3 V 2 Z M 4,2 V 7 H 14 V 2 Z m 1,1 h 8 V 6 3 Z M 4,9 v 5 H 9 V 9 Z m 4,4 v -3 3 H 5 Z"/>
</svg>
